X: 38696
T: Strawberry Blossom, The
R: hornpipe
M: 4/4
K: Dmajor
Ac|:d2 fd cdef|df a2 d'2 c'a|bgec d2 EG|FDEc dcBA|
d2 fd cdef|df a2 d'2 c'a|bgec d2 EG|1 FDEc d2 Ac:|2 FDEc d2 A2||
dc d2 edeg|fded cA A2|dc d2 edeg|f2 d2 d3 A|dc d2 edef|
gfed cA A2|1 fdec dBAG|FDEA D3 A:|2 defd ecdB|AGFA EA D2||

